Numix-GalliumOS/16/mimetypes/encrypted.svg

<?xml version="1.0" encoding="UTF-8" standalone="no"?>
<svg
   xmlns:dc="http://purl.org/dc/elements/1.1/"
   xmlns:cc="http://creativecommons.org/ns#"
   xmlns:rdf="http://www.w3.org/1999/02/22-rdf-syntax-ns#"
   xmlns:svg="http://www.w3.org/2000/svg"
   xmlns="http://www.w3.org/2000/svg"
   xmlns:sodipodi="http://sodipodi.sourceforge.net/DTD/sodipodi-0.dtd"
   xmlns:inkscape="http://www.inkscape.org/namespaces/inkscape"
   width="16"
   height="16"
   viewBox="0 0 16 16"
   id="svg2"
   version="1.1"
   inkscape:version="0.48.5 r10040"
   sodipodi:docname="encrypted.svg">
  <metadata
     id="metadata14">
    <rdf:RDF>
      <cc:Work
         rdf:about="">
        <dc:format>image/svg+xml</dc:format>
        <dc:type
           rdf:resource="http://purl.org/dc/dcmitype/StillImage" />
      </cc:Work>
    </rdf:RDF>
  </metadata>
  <defs
     id="defs12" />
  <sodipodi:namedview
     pagecolor="#ffffff"
     bordercolor="#666666"
     borderopacity="1"
     objecttolerance="10"
     gridtolerance="10"
     guidetolerance="10"
     inkscape:pageopacity="0"
     inkscape:pageshadow="2"
     inkscape:window-width="1280"
     inkscape:window-height="970"
     id="namedview10"
     showgrid="true"
     inkscape:zoom="14.75"
     inkscape:cx="-8.7204457"
     inkscape:cy="3.2567184"
     inkscape:window-x="0"
     inkscape:window-y="0"
     inkscape:window-maximized="1"
     inkscape:current-layer="svg2">
    <inkscape:grid
       type="xygrid"
       id="grid2991"
       empspacing="5"
       visible="true"
       enabled="true"
       snapvisiblegridlinesonly="true" />
  </sodipodi:namedview>
  <path
     style="fill:#dcdcdc;fill-opacity:1"
     d="M 2.667969,-4.46e-4 C 2.324219,-4.46e-4 2,0.337812 2,0.6964467 L 2,15.303108 C 2,15.641365 2.34375,16 2.667969,16 l 10.664062,0 C 13.65625,16 14,15.641365 14,15.303108 L 14,3.9995538 10,-4.46e-4 z"
     id="path4"
     inkscape:connector-curvature="0"
     sodipodi:nodetypes="ssssssccs" />
  <path
     style="fill:#000000;fill-opacity:0.19599998"
     d="m 10.583223,3.3315848 0.0154,0.01953 0.04005,-0.01953 z m 0.02978,0.667969 3.387,3.664062 0,-3.664062 z"
     id="path6"
     inkscape:connector-curvature="0"
     sodipodi:nodetypes="cccccccc" />
  <path
     style="fill:#ffffff;fill-opacity:0.39200003"
     d="m 10,-4.46e-4 3.996396,3.9999998 -3.383784,0 C 10.313513,3.9995538 10,3.6824368 10,3.3833378 z"
     id="path8"
     inkscape:connector-curvature="0"
     sodipodi:nodetypes="ccssc" />
  <path
     style="color:#000000;fill:#888888;fill-opacity:1"
     inkscape:connector-curvature="0"
     id="path30"
     d="M 8.0000105,6 C 8.0000105,6 9.997716,5.8014315 10,7.3491525 L 10,9 c 0,0 1,0.2036064 1,0.5546847 l 0,2.8884683 C 10.999966,12.737661 10.693733,12.999968 10.357142,13 L 5.6428545,13 C 5.306266,12.999968 5.000031,12.737661 4.9999996,12.443153 L 5,9.5377355 C 5,9.1866557 6,9 6,9 L 6,7.3830508 C 6,5.9830508 8.0000125,6 8.0000105,6 z m 0,0.954541 C 8.0000105,6.954541 7,6.8378456 7,8 L 7,9 9,9 9,8 C 9,6.837846 8.0000105,6.954541 8.0000105,6.954541 z"
     sodipodi:nodetypes="cccsccccsccccsccsc" />
</svg>

<svg xmlns="http://www.w3.org/2000/svg" viewBox="0 0 16 16">
 <path d="m 2.668 0 c -0.344 0 -0.668 0.338 -0.668 0.697 l 0 14.607 c 0 0.338 0.344 0.697 0.668 0.697 l 10.664 0 c 0.324 0 0.668 -0.359 0.668 -0.697 l 0 -11.304 -4 -4 z" style="fill:#dcdcdc;fill-opacity:1"/>
 <path d="m 10.583 3.332 0.015 0.02 0.04 -0.02 z m 0.03 0.668 3.387 3.664 0 -3.664 z" style="fill:#000;fill-opacity:0.196"/>
 <path d="m 10 0 3.996 4 -3.384 0 c -0.299 0 -0.613 -0.317 -0.613 -0.616 z" style="fill:#fff;fill-opacity:0.392"/>
 <path d="m 8 6 c 0 0 1.998 -0.199 2 1.349 l 0 1.651 c 0 0 1 0.204 1 0.555 l 0 2.888 c 0 0.295 -0.306 0.557 -0.643 0.557 l -4.714 0 c -0.337 0 -0.643 -0.262 -0.643 -0.557 l 0 -2.905 c 0 -0.351 1 -0.538 1 -0.538 l 0 -1.617 c 0 -1.4 2 -1.383 2 -1.383 z m 0 0.955 c 0 0 -1 -0.117 -1 1.045 l 0 1 2 0 0 -1 c 0 -1.162 -1 -1.045 -1 -1.045 z" style="fill:#888;fill-opacity:1;color:#000"/>
</svg>
